X: 0
T: The Handsome Young Maidens
C: Charlie Lennon
M: 6/8
L: 1/8
K: Amaj
|:"A" aed cdB | Ace aga | "E"bee dee | bee bag |
"A"aed cdB | Ace aga | "E"bge dBG | BAG A2 :|
B | "A"c2 A EAc | "D"dff"E" fed | "A"cde aec | "E"Bff fed |
"A"c2 A EAc | "D"dff"E" fed | "A"cde aec | "E"dBe"A" A2 B |
"A"c2 A EAc | "D"dff"E" fed | "A"cde aec | "E"Bff fed |
"A"cAA eAA | "D"dAA"E" fed |"A" ece"D"fdf |"E" gfg a3 |]